X:1
T:Partition sans titre
C:Compositeur / Arrangeur
L:1/8
M:4/4
I:linebreak $
K:F
V:1 treble nm="Violon" snm="Vln."
V:1
"F" AFCF ABcA |"Bb" BFDF B2 AB |"F" cfef gfef |"Bb" dBAB G2 F2 |"F" AFCF ABcA |"Bb" BFDF B2 AB | %6
"F" cfeg"C" bgeg |1"F" f2 fg f2 A2 :|2"F" f2 fg f2 fg |:"F" afef dfef |"Dm" cdcA FAcA | %11
"Bb" BAGA Bcde |"F" fgaf c2 fg |"Dm" afef dfef |"F" cdcA FAcA |"Bb" Bdeg"C" bgeg |1 %16
"F" f2 fg f2 fg :|2"F" f2 fg f2 A2 |] %18
